X:1
T:Little Fugue in G minor (theme)
C:Johann Sebastian Bach
M:4/4
L:1/8
Q:1/4=80
K:Gm
% Fugue subject (bars 1-3): G Bb C D | Eb D C. Bb A | G dotted-half
G2B2c2d2|e1d1c3B1A2|G6z2|
% Descending episode (bars 4-5)
d2c2B2A2|G2A2B2c2|
% Development — upper-register figures (bars 6-7)
d4e2d2|c2B2A2G2|
% Continuation (bars 8-9)
G2A2B2c2|d2e2d2c2|
% Cadential phrase (bars 10-12)
B2A2G2A2|d4c4|G8|]
